X:1874
T:Fanny Lisp?. HSJJ.077
O:england
M:6/8
L:1/8
S:HSJ Jackson,Wyresdale,Lancs.1823
R:Jig
A:Lancashire
N:I wouldn't have put it as crudely as that, myself.
H:1823
K:Bb
F|B2B Bcd|fecd2B|c2c cdc|A3F2F|B2B Bcd|fecd2B|c2c AGA|c3B2:|
|:f|b2Bb2B|~_A>BAG2E|c'2cc'2c|~B>cBA2F|B2B Bcd|fecd2B|c2c AGA|c3-B2:|]


